images/skills/1-skills-frontend-md1.svg

<?xml version="1.0" encoding="UTF-8" standalone="no"?>
<svg width="211px" height="163px" viewBox="0 0 211 163" version="1.1" xmlns="http://www.w3.org/2000/svg" xmlns:xlink="http://www.w3.org/1999/xlink" xmlns:sketch="http://www.bohemiancoding.com/sketch/ns">
    <!-- Generator: Sketch 3.2.2 (9983) - http://www.bohemiancoding.com/sketch -->
    <title>frontend</title>
    <desc>Created with Sketch.</desc>
    <defs></defs>
    <g id="Medium" stroke="none" stroke-width="1" fill="none" fill-rule="evenodd" sketch:type="MSPage">
        <g id="Group" sketch:type="MSLayerGroup" fill="#FFFFFF">
            <g id="frontend" sketch:type="MSShapeGroup">
                <path d="M105.538683,58.9769108 C85.9840071,58.9769108 69.2230714,76.5473077 65.2075405,81.2447169 C69.2230714,85.9416246 85.9840071,103.512523 105.538683,103.512523 C125.09336,103.512523 141.854295,85.9416246 145.869826,81.2447169 C141.854295,76.5473077 125.09336,58.9769108 105.538683,58.9769108 L105.538683,58.9769108 Z M105.538683,97.9454462 C96.2853286,97.9454462 88.7777476,90.4644985 88.7777476,81.2447169 C88.7777476,72.0244338 96.2853286,64.5439877 105.538683,64.5439877 C114.792038,64.5439877 122.299619,72.0244338 122.299619,81.2447169 C122.299619,90.4644985 114.792038,97.9454462 105.538683,97.9454462 L105.538683,97.9454462 Z" id="Fill-1"></path>
                <path d="M105.538683,68.3712277 C98.3802571,68.3712277 92.4441238,74.1118369 92.4441238,81.2447169 C92.4441238,88.5511292 98.3802571,94.29224 105.538683,94.29224 C112.696607,94.29224 118.633243,88.5511292 118.633243,81.2447169 C118.633243,74.1118369 112.696607,68.3712277 105.538683,68.3712277 L105.538683,68.3712277 Z M105.538683,90.6385323 C100.475688,90.6385323 96.2853286,86.4637262 96.2853286,81.2447169 C96.2853286,80.2010154 96.9831357,79.50488 98.0311024,79.50488 C99.0785667,79.50488 99.9517048,80.2010154 99.9517048,81.2447169 C99.9517048,84.3758215 102.395788,86.8112923 105.538683,86.8112923 C108.681076,86.8112923 111.12516,84.3758215 111.12516,81.2447169 C111.12516,78.2871446 108.681076,75.67764 105.538683,75.67764 C104.490717,75.67764 103.618081,74.9820062 103.618081,73.9378031 C103.618081,72.8941015 104.490717,72.0244338 105.538683,72.0244338 C110.601679,72.0244338 114.792038,76.1997415 114.792038,81.2447169 C114.792038,86.4637262 110.601679,90.6385323 105.538683,90.6385323 L105.538683,90.6385323 Z" id="Fill-2"></path>
                <path d="M0,0 L0,163 L102.988095,163 L102.988095,157.750898 L40.444681,121.820182 C39.6659905,121.372308 39.1857143,120.543766 39.1857143,119.646514 L39.1857143,46.3381415 C39.1857143,45.4408892 39.6715167,44.6123477 40.4502071,44.1644738 L104.2551,7.51003692 C105.030776,7.06467077 105.986305,7.06467077 106.761981,7.51003692 L170.55984,44.1644738 C171.338531,44.6123477 171.814286,45.4408892 171.814286,46.3381415 L171.814286,119.646514 C171.814286,120.543766 171.339536,121.372809 170.560343,121.820182 L115.170833,153.628252 C113.968133,154.318871 112.433862,153.905603 111.742083,152.70492 C111.050305,151.504237 111.459745,149.971535 112.662445,149.280917 L166.790476,118.196065 L166.790476,47.7880892 L105.5,12.57708 L44.2095238,47.7880892 L44.2095238,118.196065 L106.752938,154.127283 C107.531629,154.575157 108.011905,155.403698 108.011905,156.300951 L108.011905,163 L211,163 L211,0 L0,0 L0,0 Z M105.538683,107.339763 C81.2696643,107.339763 62.0646452,83.5061538 61.1915071,82.4624523 C60.6675238,81.7663169 60.6675238,80.8966492 61.1915071,80.2010154 C62.0646452,79.1568123 81.2696643,55.3237046 105.538683,55.3237046 C129.8072,55.3237046 149.012219,79.1568123 149.885357,80.2010154 C150.40934,80.8966492 150.40934,81.7663169 149.885357,82.4624523 C149.012219,83.5061538 129.8072,107.339763 105.538683,107.339763 L105.538683,107.339763 Z" id="Fill-3"></path>
            </g>
        </g>
    </g>
</svg>

<svg width="211" height="163" viewBox="0 0 211 163" xmlns="http://www.w3.org/2000/svg"><title>frontend</title><desc>Created with Sketch.</desc><g fill="#fff"><path d="M105.54 58.977c-19.556 0-36.317 17.57-40.332 22.268 4.015 4.697 20.776 22.268 40.33 22.268 19.555 0 36.316-17.57 40.332-22.268-4.016-4.698-20.777-22.268-40.33-22.268zm0 38.968c-9.255 0-16.762-7.48-16.762-16.7 0-9.22 7.507-16.7 16.76-16.7 9.254 0 16.762 7.48 16.762 16.7 0 9.22-7.508 16.7-16.76 16.7z"/><path d="M105.54 68.37c-7.16 0-13.096 5.742-13.096 12.875 0 7.306 5.936 13.047 13.095 13.047 7.157 0 13.093-5.74 13.093-13.047 0-7.133-5.936-12.874-13.094-12.874zm0 22.27c-5.064 0-9.255-4.176-9.255-9.395 0-1.044.698-1.74 1.746-1.74 1.05 0 1.922.696 1.922 1.74 0 3.13 2.444 5.566 5.587 5.566 3.14 0 5.585-2.434 5.585-5.565 0-2.958-2.444-5.567-5.586-5.567-1.05 0-1.922-.696-1.922-1.74s.873-1.914 1.92-1.914c5.064 0 9.254 4.176 9.254 9.22 0 5.22-4.19 9.395-9.253 9.395z"/><path d="M0 0v163h102.988v-5.25l-62.543-35.93c-.78-.448-1.26-1.276-1.26-2.173v-73.31c0-.896.487-1.725 1.265-2.173L104.255 7.51c.776-.445 1.73-.445 2.507 0l63.798 36.654c.78.448 1.254 1.277 1.254 2.174v73.31c0 .896-.474 1.725-1.254 2.172l-55.39 31.808c-1.202.69-2.736.278-3.428-.923-.692-1.2-.282-2.733.92-3.424l54.128-31.084V47.788l-61.29-35.21-61.29 35.21v70.408l62.543 35.93c.78.45 1.26 1.278 1.26 2.175v6.7H211V0H0zm105.54 107.34c-24.27 0-43.475-23.834-44.348-24.878-.524-.696-.524-1.565 0-2.26.873-1.045 20.078-24.878 44.347-24.878 24.267 0 43.472 23.833 44.345 24.877.524.697.524 1.566 0 2.262-.873 1.044-20.078 24.878-44.346 24.878z"/></g></svg>
